Yaru++/actions/16/zoom-previous.svg

<svg height="16" width="16" xmlns="http://www.w3.org/2000/svg"><g fill="#808080"><path d="m9.0605465 5.1718752.7070317.707031-.9492187.949219-1.1718752 1.1718748 1.1718752 1.171875.9492187.949219-.7070317.707031-.9492188-.949219-1.8789057-1.878906 1.8789057-1.8789058z"/><path d="m5.994 2c-1.258.015-2.179-.03-2.932.385a1.88 1.88 0 0 0 -.837.998c-.165.437-.225.96-.225 1.617v2h1v-2c0-.592.063-1.006.16-1.266.098-.26.201-.371.385-.472.365-.202 1.195-.247 2.455-.262h1v-1h-1.002zm3.0059997 0v1h1.0000003c1.258.015 2.087.06 2.453.262.183.1.29.212.387.472s.16.674.16 1.266v2h1v-2c0-.658-.06-1.179-.225-1.617a1.88 1.88 0 0 0 -.838-.998c-.752-.416-1.673-.37-2.931-.385h-.004zm-6.9999997 7v2c0 .658.06 1.179.225 1.617.164.439.461.79.837.998.753.416 1.674.37 2.932.385h1.006v-1h-1c-1.259-.015-2.09-.06-2.455-.262-.184-.1-.287-.212-.385-.472-.097-.26-.16-.674-.16-1.266v-2zm11 0v2c0 .592-.063 1.006-.16 1.266-.098.26-.202.371-.385.472-.366.202-1.197.247-2.455.262h-1.0000003v1h1.0060003c1.258-.015 2.179.03 2.932-.385a1.88 1.88 0 0 0 .837-.998c.165-.438.225-.96.225-1.617v-2z"/></g></svg>

<?xml version="1.0" encoding="UTF-8" standalone="no"?>
<svg
   xmlns:dc="http://purl.org/dc/elements/1.1/"
   xmlns:cc="http://creativecommons.org/ns#"
   xmlns:rdf="http://www.w3.org/1999/02/22-rdf-syntax-ns#"
   xmlns:svg="http://www.w3.org/2000/svg"
   xmlns="http://www.w3.org/2000/svg"
   xmlns:sodipodi="http://sodipodi.sourceforge.net/DTD/sodipodi-0.dtd"
   xmlns:inkscape="http://www.inkscape.org/namespaces/inkscape"
   width="16"
   height="16"
   version="1.1"
   id="svg6"
   sodipodi:docname="zoom-previous.svg"
   inkscape:version="0.92.4 (5da689c313, 2019-01-14)">
  <metadata
     id="metadata12">
    <rdf:RDF>
      <cc:Work
         rdf:about="">
        <dc:format>image/svg+xml</dc:format>
        <dc:type
           rdf:resource="http://purl.org/dc/dcmitype/StillImage" />
      </cc:Work>
    </rdf:RDF>
  </metadata>
  <defs
     id="defs10" />
  <sodipodi:namedview
     pagecolor="#ffffff"
     bordercolor="#666666"
     borderopacity="1"
     objecttolerance="10"
     gridtolerance="10"
     guidetolerance="10"
     inkscape:pageopacity="0"
     inkscape:pageshadow="2"
     inkscape:window-width="1836"
     inkscape:window-height="1013"
     id="namedview8"
     showgrid="false"
     inkscape:zoom="14.75"
     inkscape:cx="-6.9491525"
     inkscape:cy="8"
     inkscape:window-x="0"
     inkscape:window-y="27"
     inkscape:window-maximized="0"
     inkscape:current-layer="svg6" />
  <path
     style="fill:#808080;stroke-width:1"
     class="ColorScheme-Text"
     d="M 9.0605465,5.1718752 9.7675782,5.8789062 8.8183595,6.8281252 7.6464843,8 8.8183595,9.171875 9.7675782,10.121094 9.0605465,10.828125 8.1113277,9.878906 6.232422,8 8.1113277,6.1210942 Z"
     id="path2"
     inkscape:connector-curvature="0" />
  <path
     d="M 5.994,2 C 4.736,2.015 3.815,1.97 3.062,2.385 A 1.88,1.88 0 0 0 2.225,3.383 C 2.06,3.82 2,4.343 2,5 V 7 H 3 V 5 C 3,4.408 3.063,3.994 3.16,3.734 3.258,3.474 3.361,3.363 3.545,3.262 3.91,3.06 4.74,3.015 6,3 H 7 V 2 H 5.998 Z M 8.9999997,2 V 3 H 10 c 1.258,0.015 2.087,0.06 2.453,0.262 0.183,0.1 0.29,0.212 0.387,0.472 C 12.937,3.994 13,4.408 13,5 v 2 h 1 V 5 C 14,4.342 13.94,3.821 13.775,3.383 A 1.88,1.88 0 0 0 12.937,2.385 C 12.185,1.969 11.264,2.015 10.006,2 H 10.002 Z M 2,9 v 2 c 0,0.658 0.06,1.179 0.225,1.617 0.164,0.439 0.461,0.79 0.837,0.998 0.753,0.416 1.674,0.37 2.932,0.385 H 7 V 13 H 6 C 4.741,12.985 3.91,12.94 3.545,12.738 3.361,12.638 3.258,12.526 3.16,12.266 3.063,12.006 3,11.592 3,11 V 9 Z m 11,0 v 2 c 0,0.592 -0.063,1.006 -0.16,1.266 -0.098,0.26 -0.202,0.371 -0.385,0.472 C 12.089,12.94 11.258,12.985 10,13 H 8.9999997 v 1 H 10.006 c 1.258,-0.015 2.179,0.03 2.932,-0.385 a 1.88,1.88 0 0 0 0.837,-0.998 C 13.94,12.179 14,11.657 14,11 V 9 Z"
     font-weight="400"
     overflow="visible"
     id="path4"
     inkscape:connector-curvature="0"
     style="color:#000000;font-weight:400;font-family:sans-serif;overflow:visible;fill:#808080;stroke-width:1" />
</svg>
